X:250
T:the Maid of the Mill
O:scotland
R:Jig
M:6/8
K:D
A|\
Add dfd| cde a2(f/d/)| BBB BcA| d3-d2A|\
A|\
Aaa aba| agf "tr"g2f| efg (g/a/b)d| "tr"(d3 c2)A|\
Bcd Ha2(e/d/)| cde Ha2(f/d/)| .B.B.B (Bc).A| {A}d3-d2|]
